16x16/apps/firejail-ui.svg

<svg xmlns="http://www.w3.org/2000/svg" width="16" height="16" version="1">
 <rect style="fill:#ef4e4e" width="15" height="15" x="1" y="1" rx=".75" ry=".75"/>
 <path style="fill:none;stroke:#656565" d="M 8.50005,1 V 15.979879"/>
 <path style="fill:none;stroke:#656565" d="M 4.50005,1 V 15.979879"/>
 <path style="fill:none;stroke:#656565" d="M 12.50005,1 V 15.979879"/>
 <path style="fill:none;stroke:#656565" d="M 15.98,8.5 H 1"/>
 <path style="fill:none;stroke:#656565" d="M 15.98,4.5 H 1"/>
 <path style="fill:none;stroke:#656565" d="M 15.98,12.5 H 1"/>
 <path style="fill:#f4f4f7" d="M 7,1.5 6.4697265,2.4697265 5.5,3 6.4697265,3.5302735 7,4.5 7.5302733,3.5302735 8.5,3 7.5302733,2.4697265 Z"/>
 <path style="fill:#f4f4f7" d="M 11.499999,3.5 10.792968,4.7929689 9.5,5.5 10.792968,6.2070309 11.499999,7.5 12.20703,6.2070309 13.5,5.5 12.20703,4.7929689 Z"/>
 <path style="fill:#f4f4f7" d="M 5.921124,5.5 4.5,6.9211239 6.0461991,8.4673229 7.4673229,7.046199 Z"/>
 <path style="fill:#f4f4f7" d="M 7.9899339,7.56881 6.56881,8.9899339 12.078876,14.5 13.5,13.078876 Z"/>
 <path style="fill:#f4f4f7" d="M 4.5,9.5000004 4.1464845,10.146485 3.5,10.500001 4.1464845,10.853516 4.5,11.5 4.8535155,10.853516 5.5,10.500001 4.8535155,10.146485 Z"/>
</svg>

<svg xmlns="http://www.w3.org/2000/svg" width="16" height="16" version="1"><rect style="fill:#ef4e4e" width="15" height="15" x="1" y="1" rx=".75" ry=".75"/><path style="fill:none;stroke:#656565" d="M8.5 1v14.98M4.5 1v14.98M12.5 1v14.98M15.98 8.5H1M15.98 4.5H1M15.98 12.5H1"/><path style="fill:#f4f4f7" d="m7 1.5-.53.97L5.5 3l.97.53.53.97.53-.97L8.5 3l-.97-.53zM11.5 3.5l-.707 1.293L9.5 5.5l1.293.707L11.5 7.5l.707-1.293L13.5 5.5l-1.293-.707zM5.921 5.5 4.5 6.921l1.546 1.546 1.421-1.42zM7.99 7.569l-1.421 1.42 5.51 5.511 1.421-1.421zM4.5 9.5l-.354.646-.646.354.646.354.354.646.354-.646.646-.354-.646-.354z"/></svg>
